X:911
T:Pretzel Waltz
S:Bruce & Emmett's Drummers and Fifers Guide (1862), p. 91
M:3/4
L:1/8
Q:1/4=180
K:G
%%MIDI program 72
%%MIDI transpose 8
%%MIDI ratio 3 1
Bc|d3edc|B2A2G2|F2A2c2|(e4d2)|d(gfg)(ba)|gfedcA|
d3cAF|G2z2::G2|FGABcd|e4d2|d(gfg)ba|gfedcA|
FGABcd|e4d2|d^ced=cA|G2z2::d2|(gb) (dg) (Bd)|G4ed|
F4(ed)|G4d2|(gb) (dg) (Bd)|G4ed|F4(ed)|G2z2::
(d^c)|dAB^cde|fdefg^g|(a^gagab)|c'2 zc'ba|(gb) (dg) (Bd)|G4(ed)|
F4 (ed)|G4 d2|(gb) (dg) (Bd)|G4 (ed)|F4 (ed)|G2z2:|
